X:1
T:Rejoice in the Lord Alway
T:Rejoice in the Lord Alway
T:James McGranahan
T:Wilbur Fisk Crafts, 1869
T:Public Domain Courtesy of the Cyber Hymnal™
C:James McGranahan
Z:Public Domain
Z:Courtesy of the Cyber Hymnal™
%%score ( 1 2 ) ( 3 4 )
L:1/8
Q:1/4=110
M:4/4
K:Eb
V:1 treble 
V:2 treble 
V:3 bass 
V:4 bass 
V:1
 [B,E]2 | [EG]2 [EG]2 ([EG][FA]) ([GB][Ac]) | [Ac]2 [GB]2 [GB]2 G2 | [GB]2 [FA]2 [FA]2 [DF]2 | %4
w: 1.~O|praise the Lord * with *|heart and voice, With|God’s own Word your|
w: 2.~My|life is hid * with *|Thine, O Lord, And|shel- tered from the|
w: 3.~For|no- thing anx- * ious *|I shall be, But|trust- ing Thee in|
w: 4.~The|joys that mem- * ory *|turns to pain, I|leave for joys that|
 [EG]2 [GB]2 [GB]2 [B,E]2 | [EG]2 [EG]2 ([EG][FA]) ([GB][Ac]) | [Ac]2 [GB]2 [GB]2 [EG]2 | %7
w: doubts de- stroy, Let|those that trust * in *|Him re- joice, Yea,|
w: world’s a- larm; Why|should I sink * be- *|neath my load, When|
w: ev- ery- thing, With|thanks for ev- * ery *|gift from Thee, My|
w: ne- ver end; My|loss I count * my *|rich- est gain, For|
 [DB]3 [DB] [DA]2 [DF]2 | E6 ||"^Refrain" E2 | [Ae]6 [Ac]2 | [GB]2 [EG]>[EG] [EG]2 [GB]2 | %12
w: let them shout for|joy.||||
w: lean- ing on Thine|arm.|Re-|joice, re-|joice in the Lord, Re-|
w: trou- bles all take|wing.||||
w: Christ His joy doth|send.||||
 [GB]2 [FA]>[FA] ([FA]2 [DF]2) | [EG]2 [GB]4 E2 | [ce]6 [Ac]2 x3 | %15
w: |||
w: joice in the Lord *|al- way; Re-|joice, re-|
w: |||
w: |||
 [GB]2 [EG]>[EG] [EG]2 [GB]>[GB] | [AB]2 [DA]2 [DF]2 [Ad]2 | [Ge]6 |] %18
w: |||
w: joice in the Lord, And a-|gain, I say, re-|joice.|
w: |||
w: |||
V:2
 x2 | x8 | x6 G2 | x8 | x8 | x8 | x8 | x8 | E6 || E2 | x8 | x8 | x8 | x6 E2 | x11 | x8 | x8 | x6 |] %18
V:3
 [E,G,]2 | [E,B,]2 [E,B,]2 [E,B,]2 [E,E]2 | [E,E]2 [E,E]2 [E,B,]2 [=E,C]2 | %3
w: ~|~ ~ ~ ~|~ ~ ~ ~|
 [F,C]2 [F,C]2 [B,,D]2 [B,,B,]2 | [E,B,]2 [E,E]2 [E,E]2 [E,G,]2 | [E,B,]2 [E,B,]2 [E,B,]2 [E,E]2 | %6
w: ~ ~ ~ ~|~ ~ ~ ~|~ ~ ~ ~|
 [E,E]2 [E,E]2 [E,E]2 [E,B,]2 | [F,B,]3 [F,B,] [B,,B,]2 [B,,A,]2 | [E,G,]6 || E,2 | [A,C]6 [A,E]2 | %11
w: ~ ~ ~ ~|~ ~ ~ ~|~|~|~ ~|
 [E,E]2 [E,B,]>[E,B,] [E,B,]2 [=E,C]2 | [F,C]2 [F,C]>[F,C] [B,,B,]4 | [E,B,]2 [E,E]4 E,2 | %14
w: ~ ~ ~ ~ ~|~ ~ ~ ~|~ ~ Re-|
 C6 [A,,A,]>[B,,A,] ([C,A,] E2) | [E,G,E]2 [E,B,]>[E,B,] [E,B,]2 [E,E]>[E,E] | %16
w: joice in the Lord, *|re- joice in the Lord *|
 [D,D]2 [B,,B,]2 [B,,B,]2 [B,,B,]2 | [E,B,]6 |] %18
w: ||
V:4
 x2 | x8 | x8 | x8 | x8 | x8 | x8 | x8 | x6 || E,2 | x8 | x8 | x8 | x6 E,2 | %14
 ([A,,A,]G,,)D, ([E,A,] F,) x6 | x8 | x8 | x6 |] %18

